assets/svg/1F4CD.svg

<svg xmlns="http://www.w3.org/2000/svg" viewBox="0 0 64 64" enable-background="new 0 0 64 64"><path fill="#aeaeae" d="m5.02 61.6c-1.788 1.823-3.416 3.132-4.475 2.063l0 0c-1.061-1.071.209-2.732 2-4.554l34.13-39.01c1.786-1.825 5.461-1.07 6.52-.004l0 0c1.059 1.066 1.827 4.785.037 6.611l-38.22 34.895"/><path fill="#7c7b7d" d="m3.583 60.3l34.13-39.01c1.557-1.593 4.548-1.225 5.996-.394-.161-.323-.332-.608-.513-.793-1.054-1.064-4.729-1.819-6.515.001l-34.13 39.01c-1.792 1.82-3.062 3.482-2.01 4.553.202.202.425.295.663.339-.051-1.015 1-2.312 2.38-3.719"/><path fill="#be202e" d="m61.47 32.612c-4.743 9.464-17.435 11.841-28.363 5.332-10.92-6.526-15.938-19.466-11.205-28.923 4.743-9.448 17.438-11.836 28.368-5.325 10.919 6.516 15.928 19.473 11.2 28.916"/><path fill="#a51e2d" d="m27.926 19.04c4.743-9.455 17.439-11.841 28.368-5.33 2.283 1.36 4.287 3.01 6.02 4.848-1.805-5.804-5.997-11.316-11.989-14.891-10.925-6.514-23.625-4.126-28.368 5.327-3.746 7.482-1.372 17.12 5.18 24.06-1.481-4.776-1.344-9.752.788-14.02"/><path fill="#f4f5f5" d="m41.49 37.23c0 0 12.03 3.114 18.535-8.04 0 0 1.742-4.01-.56-2.811.0001 0-3.949 8.426-17.975 10.853"/></svg>

<?xml version="1.0" encoding="utf-8"?>
<!-- Generator: Adobe Illustrator 16.0.0, SVG Export Plug-In . SVG Version: 6.00 Build 0)  -->
<!DOCTYPE svg PUBLIC "-//W3C//DTD SVG 1.1//EN" "http://www.w3.org/Graphics/SVG/1.1/DTD/svg11.dtd">
<svg version="1.1" id="Layer_1" xmlns="http://www.w3.org/2000/svg" xmlns:xlink="http://www.w3.org/1999/xlink" x="0px" y="0px"
	 width="64px" height="64px" viewBox="0 0 64 64" enable-background="new 0 0 64 64" xml:space="preserve">
<g>
	<path fill="#AEAEAE" d="M5.02,61.602c-1.788,1.823-3.416,3.132-4.475,2.063l0,0c-1.061-1.071,0.209-2.732,2.001-4.554L36.681,20.1
		c1.786-1.825,5.461-1.07,6.52-0.004l0,0c1.059,1.066,1.827,4.785,0.037,6.611L5.02,61.602z"/>
	<path fill="#7C7B7D" d="M3.583,60.302l34.128-39.006c1.557-1.593,4.548-1.225,5.996-0.394c-0.161-0.323-0.332-0.608-0.513-0.793
		c-1.054-1.064-4.729-1.819-6.515,0.01L2.546,59.129c-1.792,1.82-3.062,3.482-2.006,4.553c0.202,0.202,0.425,0.295,0.663,0.339
		C1.152,63.006,2.204,61.709,3.583,60.302z"/>
	<path fill="#BE202E" d="M61.465,32.612c-4.743,9.464-17.435,11.841-28.363,5.332c-10.92-6.526-15.938-19.466-11.205-28.923
		C26.64-0.427,39.335-2.815,50.265,3.696C61.184,10.212,66.193,23.169,61.465,32.612z"/>
	<path fill="#A51E2D" d="M27.926,19.043c4.743-9.455,17.439-11.841,28.368-5.33c2.283,1.36,4.287,3.013,6.021,4.848
		C60.51,12.757,56.318,7.245,50.326,3.67C39.401-2.844,26.701-0.456,21.958,8.997c-3.746,7.482-1.372,17.123,5.18,24.062
		C25.657,28.283,25.794,23.307,27.926,19.043z"/>
	<path fill="#F4F5F5" d="M41.49,37.234c0,0,12.031,3.114,18.535-8.042c0,0,1.742-4.012-0.56-2.811
		C59.466,26.381,55.516,34.807,41.49,37.234z"/>
</g>
</svg>
